astro/public/img/icons/what-is-scim.svg

<?xml version="1.0" encoding="UTF-8"?>
<svg width="70px" height="70px" viewBox="0 0 70 70" version="1.1" xmlns="http://www.w3.org/2000/svg" xmlns:xlink="http://www.w3.org/1999/xlink">
    <title>what-is-scim</title>
    <defs>
        <linearGradient x1="44.6197672%" y1="0%" x2="55.3802328%" y2="100%" id="linearGradient-1">
            <stop stop-color="#A4AEBE" offset="0%"></stop>
            <stop stop-color="#2D53F5" offset="100%"></stop>
        </linearGradient>
    </defs>
    <g id="what-is-scim" stroke="none" stroke-width="1" fill="none" fill-rule="evenodd">
        <path d="M25,3 C30.5990631,3 33.8048117,3 34.6172459,3 C35.8358971,3 40.2835618,12.9712475 39.9448471,16.3316006 C39.6061324,19.6919537 37.8513264,20.3384802 37.8513264,22.1470063 C37.8513264,23.9555324 45.7085897,33.1750127 45.9257764,34.3866209 C46.1429631,35.5982291 45.5666893,38.9899567 42.7557682,40.0723796 C39.9448471,41.1548026 40.7372565,44.53125 41.3484061,45.9041229 C41.9595556,47.2769959 40.9296927,49.0381182 39.087894,49.7783775 C40.3898838,50.7802213 40.6465322,51.6862176 40.2956896,52.2704453 C39.9448471,52.854673 38.648549,53.8947804 38.648549,54.2329639 C38.648549,54.5711475 40.036201,58.7679454 38.9437637,61.1120403 C37.8513264,63.4561352 35.4002722,66.9183269 31.1121435,66.9183269 C28.253391,66.9183269 26.2456382,66.9183269 25.0888852,66.9183269 L25,3 Z" id="Path-2" fill="url(#linearGradient-1)"></path>
    </g>
</svg>

<svg xmlns="http://www.w3.org/2000/svg" width="70" height="70"><defs><linearGradient id="a" x1="44.62%" x2="55.38%" y1="0%" y2="100%"><stop offset="0%" stop-color="#A4AEBE"/><stop offset="100%" stop-color="#2D53F5"/></linearGradient></defs><path fill="url(#a)" fill-rule="evenodd" d="M25 3h9.617c1.219 0 5.667 9.971 5.328 13.332-.339 3.36-2.094 4.006-2.094 5.815 0 1.809 7.858 11.028 8.075 12.24.217 1.211-.36 4.603-3.17 5.685-2.811 1.083-2.019 4.46-1.408 5.832.612 1.373-.418 3.134-2.26 3.874 1.302 1.002 1.559 1.908 1.208 2.492-.351.585-1.647 1.625-1.647 1.963 0 .338 1.387 4.535.295 6.879-1.093 2.344-3.544 5.806-7.832 5.806H25.09L25 3Z"/></svg>
